X:149
T:May song - Misses Hamley
%%VWML:SBG-1-2-560-0
F:http://www.vwml.org/record/SBG/1/2/560
Z:Original Sibelius transcriptions by M. & S. Graebe
M:4/4
I:linebreak $
K:C
V:1 treble nm="P1"
V:1
 G | GF FE EF G2 | Ge dB c2 EG | G2 DF (E2 G2) :|$ d2 BG ce g2 | fA Bd c4 | d2 BG ce g2 | %7
w: ||* * * * * mer- ry|May merry _ May _||||
w: |||||||
w: |||||||
w: |||||||
w: |||||||
w: ||||chorus * * * * *|||
 fA Bd c4 | %8
w: |
w: |
w: |
w: |
w: |
w: |

